logos/neverinstall.svg

<?xml version="1.0" encoding="UTF-8"?>
<svg width="512px" height="159px" viewBox="0 0 512 159" version="1.1" xmlns="http://www.w3.org/2000/svg" preserveAspectRatio="xMidYMid">
    <title>Neverinstall</title>
    <g>
        <g>
            <polygon fill="#5B29FF" points="55.2083713 63.8690382 0 95.4712832 0 32.1398416"></polygon>
            <polygon fill="#2962FF" points="55.2092879 63.8552889 109.782901 32.1264131 164.991731 63.8552889 164.991731 126.425021 109.782901 158.154217 109.782901 95.5844855"></polygon>
            <polygon fill="#FFC629" points="55.2083713 0 0 32.1097765 55.2083713 63.8387898 109.782443 32.1097765"></polygon>
            <path d="M0,32.1097765 L55.2083713,63.8387898 L109.782443,32.1097765 L55.2083713,0 L0,32.1097765 Z M10.3011384,32.0831487 L55.1937054,57.8835215 L99.5699414,32.0832404 L55.1932471,5.97337153 L10.3011384,32.0831487 Z" fill="#FAFAFA"></path>
            <polygon fill="#FFBC00" points="55.2037882 57.9119366 55.2037882 6.01979824 10.3119545 32.1277422"></polygon>
        </g>
        <path d="M238.110363,95.7861415 L238.110363,151.578857 L221.955884,151.578857 L221.955884,95.7861415 L238.110363,95.7861415 Z M230.033124,69.9278843 C233.001592,69.9278843 235.417797,70.7574238 237.28174,72.416961 C238.938578,73.8916978 239.859225,75.694516 240.043359,77.8247719 L240.061398,78.1088198 C240.072389,78.2950083 240.077884,78.4836396 240.077884,78.6747133 C240.077884,81.3709457 239.145683,83.6180352 237.28174,85.4155234 C235.417797,87.143807 233.001592,88.008178 230.033124,88.008178 C227.064656,88.008178 224.64845,87.143807 222.784507,85.4155234 C220.920564,83.6872399 219.988363,81.5441865 219.988363,78.9859052 C219.988363,76.3923341 220.920564,74.2488224 222.784507,72.5205389 C224.64845,70.7922553 227.064656,69.9278843 230.033124,69.9278843 Z M281.787219,94.9566021 C288.690729,94.9566021 294.248185,97.0304507 298.459129,101.178606 C302.739278,105.326762 304.879581,111.48002 304.879581,119.637921 L304.879581,151.578857 L288.725102,151.578857 L288.725102,122.126998 C288.725102,117.702024 287.758528,114.418239 285.825839,112.274728 C283.892691,110.06247 281.096547,108.95657 277.437866,108.95657 C273.364873,108.95657 270.120045,110.235252 267.703839,112.793534 C265.287634,115.282152 264.079531,119.015538 264.079531,123.993233 L264.079531,151.578857 L247.925052,151.578857 L247.925052,95.7861415 L263.354486,95.7861415 L263.354486,102.319338 C265.494789,99.9686703 268.152524,98.171182 271.328148,96.9268728 C274.503771,95.613359 277.990128,94.9566021 281.787219,94.9566021 Z M335.159146,152.408396 C330.533891,152.408396 326.011755,151.855217 321.593655,150.748859 C317.175556,149.573755 313.654367,148.121831 311.031006,146.393548 L316.416137,134.778621 C318.901089,136.368953 321.904389,137.682467 325.425119,138.71962 C328.94585,139.687111 332.397834,140.171085 335.780613,140.171085 C342.614918,140.171085 346.032071,138.477633 346.032071,135.089812 C346.032071,133.49948 345.100329,132.358749 343.236385,131.667618 C341.372442,130.97603 338.507552,130.388478 334.641257,129.904503 C330.085206,129.213373 326.322488,128.418207 323.35402,127.519463 C320.385553,126.620719 317.796564,125.030386 315.587515,122.748924 C313.447211,120.467461 312.377518,117.21805 312.377518,113.000689 C312.377518,109.474917 313.378465,106.363915 315.380359,103.667683 C317.451458,100.902246 320.419926,98.7587343 324.286221,97.2380647 C328.221263,95.7169368 332.846518,94.9566021 338.161987,94.9566021 C342.097029,94.9566021 345.997698,95.405745 349.863535,96.3044891 C353.798577,97.1340286 357.043405,98.3095914 359.597562,99.8302609 L354.212888,111.34161 C349.311272,108.576173 343.960972,107.193455 338.161987,107.193455 C334.710461,107.193455 332.121473,107.677429 330.395481,108.645378 C328.669948,109.613327 327.806952,110.857636 327.806952,112.378764 C327.806952,114.107047 328.738694,115.316983 330.602637,116.008114 C332.052371,116.546016 334.170273,117.062847 336.956561,117.558823 L339.508499,117.978843 L339.508499,117.978843 C344.06455,118.739177 347.792436,119.568717 350.692158,120.467461 C353.591421,121.297 356.111204,122.852501 358.251508,125.134422 C360.391811,127.415885 361.461505,130.596092 361.461505,134.675043 C361.461505,138.13161 360.426184,141.208239 358.355086,143.904471 C356.283987,146.600704 353.246314,148.709384 349.242526,150.230512 C345.307484,151.682435 340.613024,152.408396 335.159146,152.408396 Z M386.443933,83.4452527 L386.443933,97.0304507 L400.320158,97.0304507 L400.320158,109.474917 L386.443933,109.474917 L386.443933,132.185966 C386.443933,134.536633 387.030569,136.368953 388.204298,137.682467 C389.446774,138.926776 391.172766,139.54916 393.381816,139.54916 C395.936431,139.54916 398.111108,138.857571 399.905846,137.474853 L404.255199,148.882166 C402.667158,150.057729 400.699637,150.956473 398.352637,151.578857 C396.074382,152.131578 393.658177,152.408396 391.10402,152.408396 C384.476412,152.408396 379.333268,150.714486 375.674586,147.326665 C372.084651,143.939303 370.289454,138.961149 370.289454,132.39358 L370.289454,109.474917 L361.694784,109.474917 L361.694784,97.0304507 L370.289454,97.0304507 L370.289454,83.4452527 L386.443933,83.4452527 Z M429.58136,94.9566021 C438.210862,94.9566021 444.838011,97.0304507 449.463266,101.178606 C454.08898,105.257557 456.401608,111.445188 456.401608,119.741499 L456.401608,151.578857 L441.282907,151.578857 L441.282907,144.630433 C438.245235,149.815742 432.584201,152.408396 424.299806,152.408396 C420.019657,152.408396 416.291771,151.682435 413.116147,150.230512 C410.009728,148.778588 407.627896,146.773944 405.971109,144.215663 C404.314321,141.65784 403.485698,138.753994 403.485698,135.504582 C403.485698,130.319273 405.418846,126.240322 409.284683,123.267729 C413.219725,120.294678 419.260239,118.808382 427.406683,118.808382 L440.247129,118.808382 C440.247129,115.282152 439.176977,112.58592 437.037132,110.719227 C434.896829,108.783787 431.686832,107.815839 427.406683,107.815839 C424.438215,107.815839 421.50412,108.299813 418.604399,109.267303 C415.773882,110.166048 413.357676,111.410815 411.355782,113.000689 L405.556797,101.696954 C408.59447,99.5539006 412.218778,97.8948216 416.429722,96.7192588 C420.710329,95.5441543 425.094055,94.9566021 429.58136,94.9566021 Z M440.247129,128.245425 L429.167048,128.245425 C422.539441,128.245425 419.225866,130.423309 419.225866,134.778621 C419.225866,136.852928 420.019657,138.512006 421.607698,139.756316 C423.264486,140.931878 425.507909,141.519431 428.338425,141.519431 C431.099738,141.519431 433.550775,140.897047 435.69062,139.652738 C437.830923,138.339224 439.34976,136.4377 440.247129,133.949081 L440.247129,128.245425 Z M464.807913,74.6305939 L480.963308,74.6305939 L480.963308,151.578857 L464.807913,151.578857 L464.807913,74.6305939 Z M490.775706,74.6305939 L506.931101,74.6305939 L506.931101,151.578857 L490.775706,151.578857 L490.775706,74.6305939 Z" fill="#192137"></path>
        <path d="M253.844572,5.74678351 C260.747166,5.74678351 266.303705,7.81412416 270.514191,11.9488513 C274.793423,16.0835784 276.933268,22.2167623 276.933268,30.348403 L276.933268,62.1856689 L260.781539,62.1856689 L260.781539,32.8292301 C260.781539,28.4188301 259.815423,25.1455407 257.882734,23.0092245 C255.950044,20.8040704 253.154359,19.7014703 249.496136,19.7014703 C245.423601,19.7014703 242.179689,20.9763487 239.763942,23.5261055 C237.347737,26.0069326 236.140092,29.7281733 236.140092,34.6898275 L236.140092,62.1856689 L219.988363,62.1856689 L219.988363,6.5737106 L235.415047,6.5737106 L235.415047,13.0859161 C237.554892,10.7429026 240.212627,8.95118901 243.387334,7.71077546 C246.562499,6.40143222 250.048398,5.74678351 253.844572,5.74678351 Z M341.996201,34.5864788 L341.843942,36.8440475 L341.843942,36.8440475 L341.685467,38.9279492 L341.685467,38.9279492 L299.546238,38.9279492 C300.305656,42.3735627 302.099936,45.0955521 304.929995,47.0940089 C307.760054,49.0926948 311.280326,50.0918086 315.490811,50.0918086 C318.390075,50.0918086 320.943773,49.6784138 323.152364,48.8511659 C325.430161,47.95563 327.535633,46.5770362 329.468322,44.7165763 L338.061618,54.0195175 C332.815812,60.015117 325.154259,63.0129168 315.0765,63.0129168 C308.795374,63.0129168 303.238835,61.8066473 298.40734,59.3950248 C293.575846,56.9141977 289.848418,53.5030032 287.225515,49.1614412 C284.602612,44.819925 283.290931,39.8926898 283.290931,34.3797356 C283.290931,28.9356652 284.568239,24.0429407 287.121937,19.7014703 C289.74484,15.2910703 293.299485,11.8799216 297.786331,9.46802417 C302.341924,6.98719706 307.414947,5.74678351 313.00586,5.74678351 C318.458821,5.74678351 323.393893,6.91826738 327.811535,9.26128094 C332.229176,11.6042945 335.680243,14.9809784 338.165195,19.3913784 C340.719352,23.7328029 341.996201,28.7978517 341.996201,34.5864788 Z M313.109437,17.9442216 C309.451214,17.9442216 306.379627,18.977892 303.894675,21.0452326 C301.409723,23.1126191 299.891345,25.938003 299.339082,29.5214301 L326.776214,29.5214301 C326.223952,26.0069326 324.705574,23.2159678 322.220622,21.1486271 C319.73567,19.0123568 316.698914,17.9442216 313.109437,17.9442216 Z M407.026594,6.5737106 L383.524046,62.1856689 L366.854428,62.1856689 L343.455457,6.5737106 L360.124617,6.5737106 L375.551759,44.4064385 L391.496333,6.5737106 L407.026594,6.5737106 Z M466.664065,34.5864788 L466.352415,38.9279492 L466.352415,38.9279492 L424.21456,38.9279492 C424.97352,42.3735627 426.768259,45.0955521 429.598317,47.0940089 C432.428376,49.0926948 435.948648,50.0918086 440.159134,50.0918086 C443.057939,50.0918086 445.612095,49.6784138 447.820687,48.8511659 C450.098483,47.95563 452.203496,46.5770362 454.136186,44.7165763 L462.731773,54.0195175 C457.484134,60.015117 449.822581,63.0129168 439.744822,63.0129168 C433.463696,63.0129168 427.907157,61.8066473 423.075662,59.3950248 C418.243709,56.9141977 414.51674,53.5030032 411.893837,49.1614412 C409.270476,44.819925 407.959253,39.8926898 407.959253,34.3797356 C407.959253,28.9356652 409.236103,24.0429407 411.790259,19.7014703 C414.413162,15.2910703 417.967807,11.8799216 422.454195,9.46802417 C427.009787,6.98719706 432.083269,5.74678351 437.674182,5.74678351 C443.127143,5.74678351 448.062215,6.91826738 452.479857,9.26128094 C456.897498,11.6042945 460.348566,14.9809784 462.832601,19.3913784 C465.385382,23.7328029 466.664065,28.7978517 466.664065,34.5864788 Z M437.777759,17.9442216 C434.119536,17.9442216 431.047949,18.977892 428.562997,21.0452326 C426.078045,23.1126191 424.559667,25.938003 424.007405,29.5214301 L451.444537,29.5214301 C450.892274,26.0069326 449.373896,23.2159678 446.888944,21.1486271 C444.403992,19.0123568 441.366778,17.9442216 437.777759,17.9442216 Z M492.84268,13.9128432 C494.776744,11.2252729 497.366191,9.19235125 500.611019,7.81412416 C503.924594,6.43589706 507.719393,5.74678351 512,5.74678351 L512,20.631792 L509.497606,20.4630124 L509.497606,20.4630124 L508.374775,20.4250487 L508.374775,20.4250487 C503.750436,20.4250487 500.125211,21.734392 497.503683,24.3530326 C494.882155,26.9027894 493.571391,30.7618436 493.571391,35.9302411 L493.571391,62.1856689 L477.415996,62.1856689 L477.415996,6.5737106 L492.84268,6.5737106 L492.84268,13.9128432 Z" fill="#192137"></path>
    </g>
</svg>

<svg preserveAspectRatio="xMidYMid" viewBox="0 0 512 159" xmlns="http://www.w3.org/2000/svg">
  <path fill="#5B29FF" d="M55.208 63.869 0 95.471V32.14z"/>
  <path fill="#2962FF" d="m55.21 63.855 54.573-31.729 55.209 31.73v62.569l-55.21 31.73v-62.57z"/>
  <path fill="#FFC629" d="M55.208 0 0 32.11l55.208 31.729 54.574-31.73z"/>
  <path fill="#FAFAFA" d="m0 32.11 55.208 31.729 54.574-31.73L55.208 0 0 32.11Zm10.301-.027 44.893 25.8 44.376-25.8-44.377-26.11-44.892 26.11Z"/>
  <path fill="#FFBC00" d="M55.204 57.912V6.02L10.312 32.128z"/>
  <path fill="#192137" d="M238.11 95.786v55.793h-16.154V95.786h16.154Zm-8.077-25.858c2.969 0 5.385.83 7.249 2.489 1.657 1.475 2.577 3.278 2.761 5.408l.018.284c.011.186.017.375.017.566 0 2.696-.932 4.943-2.796 6.74-1.864 1.729-4.28 2.593-7.249 2.593-2.968 0-5.385-.864-7.248-2.592-1.864-1.729-2.797-3.872-2.797-6.43 0-2.594.933-4.737 2.797-6.465 1.863-1.729 4.28-2.593 7.248-2.593Zm51.754 25.029c6.904 0 12.461 2.073 16.672 6.222 4.28 4.148 6.42 10.301 6.42 18.459v31.94h-16.154v-29.451c0-4.425-.966-7.709-2.9-9.852-1.932-2.213-4.728-3.318-8.387-3.318-4.073 0-7.318 1.278-9.734 3.837-2.416 2.488-3.624 6.222-3.624 11.2v27.585h-16.155V95.786h15.43v6.533c2.14-2.35 4.798-4.148 7.973-5.392 3.176-1.314 6.662-1.97 10.46-1.97Zm53.372 57.451a55.6 55.6 0 0 1-13.565-1.66c-4.418-1.174-7.94-2.626-10.563-4.354l5.385-11.615c2.485 1.59 5.488 2.903 9.01 3.94 3.52.968 6.972 1.452 10.355 1.452 6.834 0 10.251-1.693 10.251-5.081 0-1.59-.932-2.731-2.796-3.422-1.864-.692-4.728-1.28-8.595-1.763-4.556-.692-8.319-1.487-11.287-2.386-2.968-.898-5.557-2.489-7.766-4.77-2.14-2.282-3.21-5.53-3.21-9.748 0-3.526 1-6.637 3.002-9.333 2.071-2.766 5.04-4.91 8.906-6.43 3.935-1.521 8.56-2.281 13.876-2.281 3.935 0 7.836.449 11.702 1.347 3.935.83 7.18 2.006 9.734 3.526l-5.385 11.512c-4.902-2.766-10.252-4.149-16.051-4.149-3.452 0-6.04.484-7.767 1.452-1.725.968-2.588 2.213-2.588 3.734 0 1.728.932 2.938 2.796 3.63 1.45.537 3.567 1.054 6.354 1.55l2.551.42c4.557.76 8.284 1.59 11.184 2.488 2.9.83 5.42 2.386 7.56 4.667 2.14 2.282 3.21 5.462 3.21 9.541 0 3.457-1.036 6.533-3.107 9.23-2.071 2.696-5.109 4.804-9.112 6.326-3.936 1.451-8.63 2.177-14.084 2.177Zm51.285-68.963V97.03h13.876v12.445h-13.876v22.711c0 2.35.587 4.183 1.76 5.496 1.243 1.245 2.969 1.867 5.178 1.867 2.554 0 4.73-.691 6.524-2.074l4.35 11.407c-1.589 1.176-3.556 2.074-5.903 2.697-2.279.553-4.695.83-7.249.83-6.628 0-11.77-1.695-15.43-5.082-3.59-3.388-5.385-8.366-5.385-14.933v-22.92h-8.594V97.03h8.594V83.445h16.155Zm43.137 11.512c8.63 0 15.257 2.073 19.882 6.222 4.626 4.079 6.939 10.266 6.939 18.562v31.838h-15.12v-6.949c-3.037 5.186-8.698 7.778-16.982 7.778-4.28 0-8.008-.726-11.184-2.177-3.106-1.452-5.488-3.457-7.145-6.015-1.657-2.558-2.485-5.462-2.485-8.711 0-5.186 1.933-9.265 5.799-12.237 3.935-2.973 9.975-4.46 18.122-4.46h12.84c0-3.526-1.07-6.222-3.21-8.089-2.14-1.935-5.35-2.903-9.63-2.903-2.969 0-5.903.484-8.803 1.451-2.83.899-5.246 2.144-7.248 3.734l-5.8-11.304c3.038-2.143 6.663-3.802 10.874-4.978a49.454 49.454 0 0 1 13.151-1.762Zm10.666 33.288h-11.08c-6.628 0-9.941 2.178-9.941 6.534 0 2.074.794 3.733 2.382 4.977 1.656 1.176 3.9 1.763 6.73 1.763 2.762 0 5.213-.622 7.353-1.866 2.14-1.314 3.659-3.215 4.556-5.704v-5.704Zm24.56-53.614h16.156v76.948h-16.155V74.63Zm25.969 0h16.155v76.948h-16.155V74.63Z"/>
  <path fill="#192137" d="M253.845 5.747c6.902 0 12.459 2.067 16.67 6.202 4.278 4.135 6.418 10.268 6.418 18.4v31.837h-16.151V32.829c0-4.41-.967-7.683-2.9-9.82-1.932-2.205-4.728-3.308-8.386-3.308-4.072 0-7.316 1.275-9.732 3.825-2.416 2.48-3.624 6.202-3.624 11.164v27.496h-16.152V6.574h15.427v6.512c2.14-2.343 4.798-4.135 7.972-5.375 3.175-1.31 6.661-1.964 10.458-1.964Zm88.151 28.84-.152 2.257-.159 2.084h-42.139c.76 3.446 2.554 6.168 5.384 8.166 2.83 1.999 6.35 2.998 10.56 2.998 2.9 0 5.454-.414 7.662-1.24 2.278-.896 4.384-2.275 6.316-4.135l8.594 9.303c-5.246 5.995-12.908 8.993-22.986 8.993-6.28 0-11.837-1.206-16.669-3.618-4.831-2.48-8.559-5.892-11.181-10.234-2.623-4.341-3.935-9.268-3.935-14.781 0-5.444 1.277-10.337 3.83-14.679 2.624-4.41 6.178-7.821 10.665-10.233 4.556-2.48 9.629-3.721 15.22-3.721 5.453 0 10.388 1.171 14.806 3.514 4.417 2.343 7.868 5.72 10.353 10.13 2.554 4.342 3.831 9.407 3.831 15.195ZM313.11 17.943c-3.658 0-6.73 1.034-9.214 3.101-2.485 2.068-4.004 4.893-4.556 8.476h27.437c-.552-3.514-2.07-6.305-4.555-8.372-2.485-2.137-5.522-3.205-9.112-3.205Zm93.918-11.37-23.503 55.612h-16.67l-23.4-55.611h16.67l15.427 37.832 15.944-37.832h15.53Zm59.637 28.012-.312 4.342h-42.137c.759 3.446 2.553 6.168 5.383 8.166 2.83 1.999 6.35 2.998 10.561 2.998 2.899 0 5.453-.414 7.662-1.24 2.277-.896 4.382-2.275 6.315-4.135l8.596 9.303c-5.248 5.995-12.91 8.993-22.987 8.993-6.281 0-11.838-1.206-16.67-3.618-4.831-2.48-8.558-5.892-11.181-10.234-2.624-4.341-3.935-9.268-3.935-14.781 0-5.444 1.277-10.337 3.831-14.679 2.623-4.41 6.178-7.821 10.664-10.233 4.556-2.48 9.63-3.721 15.22-3.721 5.453 0 10.388 1.171 14.806 3.514 4.417 2.343 7.869 5.72 10.353 10.13 2.552 4.342 3.831 9.407 3.831 15.195Zm-28.886-16.642c-3.658 0-6.73 1.034-9.215 3.101-2.485 2.068-4.003 4.893-4.556 8.476h27.438c-.553-3.514-2.071-6.305-4.556-8.372-2.485-2.137-5.522-3.205-9.111-3.205Zm55.065-4.031c1.934-2.688 4.523-4.72 7.768-6.099 3.314-1.378 7.108-2.067 11.389-2.067v14.885l-2.502-.169-1.123-.038c-4.625 0-8.25 1.31-10.871 3.928-2.622 2.55-3.933 6.409-3.933 11.577v26.256h-16.155V6.574h15.427v7.339Z"/>
</svg>
